X: 2170
T: Fanteladda
T: Elverumspols efter Christian Horne
O: efter Marit Larsen-Westling, Eva Karlsson
S: Bruce Sagan's "scanfolk" session archive 2021-1-27
S: https://nordicfiddlesandfeet.org/Allspel/Fanteladda.pdf 2021-7-13
S: Karen Myers #2170
F: https://app.box.com/s/u6iiren0igvsukrhdducy7orq72jayq8/file/769009690054
R: pols
Z: 2021 John Chambers <jc:trillian.mit.edu>
M: 3/4
L: 1/8
K: D
|: A>B A>G FG | A2 d2 f2 | (A>B) A>G FE |\
[1 (ED) D2 :|[2 (ED) D2 Ac |:\
e2 e2 Ad | f2 f2 ef |
g>f e>d cB | (BA) A2 BA | G2 G2 AG |\
F2 F2 GF | E>c c>B Bc |[1 d2 d2 Ac :|\
[2 d2 d2 (3ABc | {c}d2 d4 |]
%%text [Tag ending when played as Elverumspols]
